src/play.svg

<?xml version="1.0" encoding="UTF-8" standalone="no"?>
<!-- Uploaded to: SVG Repo, www.svgrepo.com, Generator: SVG Repo Mixer Tools -->

<svg
   width="800px"
   height="800px"
   viewBox="0 0 24 24"
   fill="none"
   version="1.1"
   id="svg1"
   sodipodi:docname="play.svg"
   inkscape:version="1.3 (0e150ed6c4, 2023-07-21)"
   xmlns:inkscape="http://www.inkscape.org/namespaces/inkscape"
   xmlns:sodipodi="http://sodipodi.sourceforge.net/DTD/sodipodi-0.dtd"
   xmlns="http://www.w3.org/2000/svg"
   xmlns:svg="http://www.w3.org/2000/svg">
  <defs
     id="defs1" />
  <sodipodi:namedview
     id="namedview1"
     pagecolor="#ffffff"
     bordercolor="#666666"
     borderopacity="1.0"
     inkscape:showpageshadow="2"
     inkscape:pageopacity="0.0"
     inkscape:pagecheckerboard="0"
     inkscape:deskcolor="#d1d1d1"
     inkscape:zoom="0.295"
     inkscape:cx="398.30508"
     inkscape:cy="400"
     inkscape:window-width="1278"
     inkscape:window-height="1408"
     inkscape:window-x="0"
     inkscape:window-y="0"
     inkscape:window-maximized="1"
     inkscape:current-layer="svg1" />
  <path
     fill-rule="evenodd"
     clip-rule="evenodd"
     d="M7.23832 3.04445C5.65196 2.1818 3.75 3.31957 3.75 5.03299L3.75 18.9672C3.75 20.6806 5.65196 21.8184 7.23832 20.9557L20.0503 13.9886C21.6499 13.1188 21.6499 10.8814 20.0503 10.0116L7.23832 3.04445ZM2.25 5.03299C2.25 2.12798 5.41674 0.346438 7.95491 1.72669L20.7669 8.6938C23.411 10.1317 23.411 13.8685 20.7669 15.3064L7.95491 22.2735C5.41674 23.6537 2.25 21.8722 2.25 18.9672L2.25 5.03299Z"
     fill="#1C274C"
     id="path1"
     style="fill:#eeeeee;fill-opacity:1" />
</svg>

<svg xmlns="http://www.w3.org/2000/svg" width="800" height="800" fill="none" viewBox="0 0 24 24"><path fill="#1C274C" fill-rule="evenodd" d="M7.238 3.044C5.652 2.182 3.75 3.32 3.75 5.033v13.934c0 1.714 1.902 2.851 3.488 1.989l12.812-6.967c1.6-.87 1.6-3.108 0-3.977zM2.25 5.033c0-2.905 3.167-4.687 5.705-3.306l12.812 6.967c2.644 1.438 2.644 5.174 0 6.612L7.955 22.273c-2.538 1.38-5.705-.4-5.705-3.306z" clip-rule="evenodd" style="fill:#eee;fill-opacity:1"/></svg>
